X:378
T:Con Cassidy's
R:jig
D:Altan: The Red Crow
Z:id:hn-jig-378
M:6/8
K:G
A|B2B BAB|d2c A2F|G2G GFG|BAG A2B|c2c cBc|e2d B2c|ded cAF|~G3 G2:|
|:g|f2d def|gfg a2g|f2d ded|c2A A2g|f2d def|gfg a2g|f2d ed^c|1 d3 d2:|2 d3 c2||

